X:18
T:Downs Hornpipe. JBu.18
O:England,South Yorkshire
S:Joshua Burnett’s MS,c1835,S.Yorkshire
M:C|
L:1/8
Q:1/2=90
R:.hornpipe
Z:vmp.R.Greig.2010
K:Bb
dc|BABF DFBc|dBgf edcB|c=Bcd ecFA|”triplet signs added”(3Bdc(3 BAG Fedc|
BABF DFBc|dBgf edcB|c=Bcd ecFA|B2d2B2:|
|:(3fga|bB (3BAB GB (3BAB|FB (3BAB DB (3BAB|c=Bcd ecFA|(3Bdc (3BAG F2(3fga|
bB (3BAB GB (3BAB|FB (3BAB DB (3BAB|c=Bcd ecFA|B2d2B2:|

